packages/sights/assets/overlays/McR3TJK0.svg

<svg width="500" height="375" viewBox="0 0 500 375" fill="none" xmlns="http://www.w3.org/2000/svg">
<path d="M14.5 50.8301C137.7 23.1601 293.3 58.5001 293.3 58.5001L397.3 96.5001C411.3 100.5 444.3 109.5 444.3 109.5C475.3 120.5 487.3 142.78 487.3 142.78L490.3 149.5L487.3 158.5L491.3 171.5L490.3 181.5L476.3 192.5C476.3 192.5 502.3 218.5 485.3 245.5L483.3 256.5C483.3 256.5 459.3 288.5 425.3 293.5L365.3 303.5H355.21C357.259 297.031 358.302 290.286 358.3 283.5C358.3 243.18 321.23 211.22 276.3 208.5C226.8 205.5 183.3 221.5 195.3 283.5C195.92 286.68 195.54 289.93 196 293.06C196 293.06 26.7 270.33 14.5 271.41" stroke="white" stroke-miterlimit="10"/>
<path d="M409.71 100C409.71 100 429.3 114.5 420.3 124.5C420.3 124.5 269.3 69.5 261.3 71.5C261.3 71.5 286.3 61.5 293.3 58.5" stroke="white" stroke-miterlimit="10"/>
<path d="M476.3 192.5L466.3 200.5C458.59 203.208 450.471 204.561 442.3 204.5" stroke="white" stroke-miterlimit="10"/>
<path d="M488.31 161.78L485.31 166.5L480.31 168.5C480.31 168.5 436.31 212.5 402.31 238.5L359.31 246.5L347.46 247.4" stroke="white" stroke-miterlimit="10"/>
<path d="M14.5 58C34.7 54.52 85.3 55.49 85.3 55.49C205.3 58.49 325.3 110.49 325.3 110.49C325.3 110.49 335.3 115.49 322.3 120.49C322.3 120.49 265.3 132.49 225.3 136.49C225.3 136.49 15.7 136.26 14.5 134.38" stroke="white" stroke-miterlimit="10"/>
<path d="M226 136.5C226 136.5 234.13 153.05 231.74 161.78C231.74 161.78 178.48 253.51 174.41 259C174.41 259 166.34 274.5 141.34 272.5L14.5 262.24" stroke="white" stroke-miterlimit="10"/>
<path d="M191.74 69.0601C191.74 69.0601 206.3 111.5 217.3 130.5L224.3 132.5L226.17 136.93" stroke="white" stroke-miterlimit="10"/>
<path d="M68.7398 55.3701C68.7398 55.3701 41.8298 114.27 40.0698 135.37C40.0698 135.37 26.2198 152.23 23.2598 171.85C23.2598 171.85 23.2598 197.48 35.2598 230.48V241.48L36.2598 245.48C36.2598 245.48 46.3798 257.6 49.3198 265.04" stroke="white" stroke-miterlimit="10"/>
<path d="M187.3 170.5C187.3 170.5 185.3 176.5 181.3 176.5L165.3 175.5C165.3 175.5 160.3 174.5 164.3 169.5L154.3 170.5C154.3 170.5 150.3 174.5 150.3 175.5L151.3 179.5C151.3 179.5 176.3 182.5 198.3 182.5C200.334 181.705 202.078 180.31 203.3 178.5C203.3 178.5 202.3 173.5 199.3 172.5L187.3 170.5Z" stroke="white" stroke-miterlimit="10"/>
<path d="M187.3 170.5C187.3 170.5 166.3 168.5 164.3 169.5" stroke="white" stroke-miterlimit="10"/>
<path d="M188.44 182.32L183.3 187.5C183.3 187.5 173.3 188.5 167.3 186.5C167.3 186.5 163.02 182.73 162.16 180.62" stroke="white" stroke-miterlimit="10"/>
<path d="M348.223 297.796C358.453 264.829 334.172 227.996 293.989 215.526C253.806 203.057 212.938 219.674 202.708 252.641C192.478 285.608 216.759 322.441 256.942 334.91C297.125 347.38 337.993 330.763 348.223 297.796Z" stroke="white" stroke-miterlimit="10"/>
</svg>

<svg width="500" height="375" fill="none" xmlns="http://www.w3.org/2000/svg"><path d="M14.5 50.83c123.2-27.67 278.8 7.67 278.8 7.67l104 38c14 4 47 13 47 13 31 11 43 33.28 43 33.28l3 6.72-3 9 4 13-1 10-14 11s26 26 9 53l-2 11s-24 32-58 37l-60 10h-10.09a66.169 66.169 0 0 0 3.09-20c0-40.32-37.07-72.28-82-75-49.5-3-93 13-81 75 .62 3.18.24 6.43.7 9.56 0 0-169.3-22.73-181.5-21.65" stroke="#fff" stroke-miterlimit="10"/><path d="M409.71 100s19.59 14.5 10.59 24.5c0 0-151-55-159-53 0 0 25-10 32-13M476.3 192.5l-10 8a70.824 70.824 0 0 1-24 4" stroke="#fff" stroke-miterlimit="10"/><path d="m488.31 161.78-3 4.72-5 2s-44 44-78 70l-43 8-11.85.9M14.5 58c20.2-3.48 70.8-2.51 70.8-2.51 120 3 240 55 240 55s10 5-3 10c0 0-57 12-97 16 0 0-209.6-.23-210.8-2.11M226 136.5s8.13 16.55 5.74 25.28c0 0-53.26 91.73-57.33 97.22 0 0-8.07 15.5-33.07 13.5L14.5 262.24" stroke="#fff" stroke-miterlimit="10"/><path d="M191.74 69.06s14.56 42.44 25.56 61.44l7 2 1.87 4.43M68.74 55.37s-26.91 58.9-28.67 80c0 0-13.85 16.86-16.81 36.48 0 0 0 25.63 12 58.63v11l1 4s10.12 12.12 13.06 19.56M187.3 170.5s-2 6-6 6l-16-1s-5-1-1-6l-10 1s-4 4-4 5l1 4s25 3 47 3a10.758 10.758 0 0 0 5-4s-1-5-4-6l-12-2Z" stroke="#fff" stroke-miterlimit="10"/><path d="M187.3 170.5s-21-2-23-1M188.44 182.32l-5.14 5.18s-10 1-16-1c0 0-4.28-3.77-5.14-5.88M348.223 297.796c10.23-32.967-14.051-69.8-54.234-82.27-40.183-12.469-81.051 4.148-91.281 37.115-10.23 32.967 14.051 69.8 54.234 82.269 40.183 12.47 81.051-4.147 91.281-37.114Z" stroke="#fff" stroke-miterlimit="10"/></svg>
